!!!OTL: BIN ICH GLEICH A GEBIRGISCHES MADEL
!!!ARE: Europa, Mitteleuropa, Deutschland, Erzgebirge, Schneeberg
!!!SCT: B0697
!!!YEM: Copyright 1995, estate of Helmut Schaffrath.
**kern
*ICvox
*Ivox
*M6/8
*k[]
*C:
{16G
16G
=1
8.G
16A
8G
8e
8d
8c
=2
8c
8B
4.r}
{8A
=3
4G
8G
8A
8G
8F
=4
2E
8r}
{8C
=5
4A
8A
8c
8B
8A
=6
8A
8G
4.r}
{8G
=7
8.G
16G
8G
8G
8A
8B
=8
4.c
8e
8d}
{8c
=9
8.d
16e
8f
8G
8A
8B
=10
2c
8r}
==
!!!AGN: Heimat - Lied
!!!ONB: ESAC (Essen Associative Code) Database: BOEHME
!!!AMT: compound duple
!!!AIN: vox
!!!EED: Helmut Schaffrath
!!!EEV: 1.0
*-
